X: 24817
T: Maggie Pickins
R: strathspey
M: 4/4
K: Amajor
A>F E>F|A>B c2|e>c B>A|FB Bc/B/|
A>F E>F|A>B c2|e>c Bc/B/|A2 A2:|
a>f e>f|a>f e>c|e>c B>A|FB Bc/B/|
A>F E>F|A>B c2|e>c Bc/B/|A2 A2:|

